X:1
T:Title
%%score { ( 1 3 5 ) | ( 2 4 ) }
L:1/8
Q:1/4=100
M:4/4
K:D
V:1 treble nm="Grand Piano"
V:3 treble 
V:5 treble 
V:2 bass 
V:4 bass 
V:1
 [DF]>[EG] [FA]>[GB] [FA]>[EG] [DF]>[EG] | [FA]4 [Fd]2 z2 | B>B B>B [^Gd]>[Gd] [Gc]>[GB] | A6 z2 | %4
w: Thos.~P.~Westendorf * * * * * * *||||
 F>[EG] [FA]>[GB] [FA]>[EG] [DF]>[EG] | [FA]4 [Fd]2 z2 | B>B B>B c>c B>c |[M:3/4] [Fd]6 | %8
w: ||||
[M:1/4] A>d |[M:4/4] c4 G2 z2 | B4 A2 z2 | [FA]>[EG] [EG]>[EG] [EG]>[FA] [GB]>[GB] | [FA]6 z2 | %13
w: |||||
 c4 G2 z2 |[M:3/4] B4 z2 |[M:1/4] [FA]>[FA] |[M:4/4] z2 z A [GB]>[FA] [GB]>[Ec] | %17
w: ||||
 d->[Fd-] [Dd-]>[Gd-] [Fd]2 z2 |] %18
w: |
V:2
 [D,A,]>[D,A,] [D,D]>[D,D] [D,D]>[D,D] [D,A,]>[D,A,] | [D,D]4 [D,D]2 z2 | %2
 [G,DG]>[G,DG] [G,DG]>[G,DG][K:bass] [E,B,]>[E,B,] [E,E]>[E,D] | [CE]2 z2 z4 | %4
 [D,A,D]>[D,A,] [D,D]>[D,D] [D,D]>[D,D] [D,A,]>[D,A,] | [D,D]4 [D,D]2 z2 | %6
 [G,DG]>[G,DG] [G,DG]>[G,DG] [A,G]>[A,G] [A,CG]>[A,G] |[M:3/4][K:bass] [D,A,]6 |[M:1/4] z2 | %9
[M:4/4] z z/ [A,E]/ [A,E]>[A,E] [A,CE][A,C] z2 | %10
 z z/ [D,D]/ [D,D]>[D,D] [D,D][D,D] [D,A,D]>[D,A,D] | [A,,A,]2 [A,,A,]2 [A,,A,]2 [C,A,]2 | %12
 [D,D]>D, D,>D, D,2 z2 | z z/ [A,E]/ [A,E]>[A,E] [A,CE][A,C] z2 | %14
[M:3/4] z z/ [D,D]/ [D,D]>[D,D] [D,D][D,D] |[M:1/4] [D,D]>[D,A,] | %16
[M:4/4] [A,,A,]2 z F [A,,A,]2 [A,,A,]2 | [D,A,]>[D,A,] [D,F,]>[D,B,] [D,A,]2 z2 |] %18
V:3
 x8 | x8 | x8 | z2 F2 G2 E2 | x8 | x8 | x8 |[M:3/4] x6 |[M:1/4] x2 |[M:4/4] z z/ G/ G>G z E G>c | %10
 z z/ F/ F>F FF F>F | x8 | z z/ D/ D>D D2 A>d | z z/ G/ G>G z E G>c |[M:3/4] z z/ F/ F>F [FA]F | %15
[M:1/4] x2 |[M:4/4] [EG]4 z4 | F2 z2 z4 |] %18
V:4
 x8 | x8 | x4[K:bass] x4 | A,2- [A,-D]2 [A,E]2 C2 | x8 | x8 | x8 |[M:3/4][K:bass] x6 |[M:1/4] x2 | %9
[M:4/4] x8 | x8 | x8 | x8 | x8 |[M:3/4] x6 |[M:1/4] x2 |[M:4/4] z2 A,,2 z4 | x8 |] %18
V:5
 x8 | x8 | x8 | x8 | x8 | x8 | x8 |[M:3/4] x6 |[M:1/4] x2 |[M:4/4] x8 | x8 | x8 | x8 | x8 | %14
[M:3/4] x6 |[M:1/4] x2 |[M:4/4] z2 A,2 z4 | x8 |] %18

